!!!OTL: Feierabend (103), S. 255
!!!id: T0265
**kern
*clefG2
*k[b-]
*F:
{8.f
16f
=1
4f
4c
8.a
16a
=2
4a
4f}
=3
{4cc
=4
4dd
4cc
8b-
8b-
=5
8a
8cc
4g}
=6
{8b-
8b-
=7
8b-
8dd
4dd
8cc
8b-
=8
8a
8cc
4cc}
=9
{8b-
8a
=10
4g
4cc
4b-
=11
4a}
4r
==
*-
!!!minrhy: 16
!!!meters: 3/4 ]  ZZ[4
!!!cut: Feierabend (103), S. 255
!!!reg: Luxemburg
!!!trd: Singendes Volk, Esch-Alzette 1937 posth.
!!!rhy1: X_.X  X__X__X_.X  X__X__
!!!rhy2: X__  X__X__X_X_  X_X_X__
!!!key: T0265  16  F 3/4 ]  ZZ[4
!!!mod: SECHSTONSKALA DUR ?]  AMBITUS[9
!!!kad: 1253
!!!akz: 13_63_43_23_
!!!fot: 'a__b__c__d__
!!!for: 'a__b__c__d__
!!!fok: '^__\__/__\__
!! PHRAS[AUFTAKTIG]
!!!fkt: Liebeslieder
!!!bem: Blascheid, fff Barbara Kaisen-Kolbach, 1902
!! THILL, Mathias:
!! PR[15] 2K[6] 2G[3] 3K[9] 3G[9] 4A[6] 4Ü[0] 5A[0] 6K[0] 6G[3]
!! 7K[0] 7G[0] 8A[0] MEHR[0] SI[35] ABS[34] SR[9] SP[26]
!! ST[16] 2k[9] 2g[24] 3k[12] 3g[6] 4d[0] 4ü[0] 5d[0] 6k[0] 6g[0]
!! 7k[0] 7g[0] 8d[0] mehr[0] si[50] dm[-15] sr[32] sp[18]
!! 1F[41] 2F[54] 3F[0] 4F[0] LF[0] 2P[5] 3P[0] 4P[0] TRI[0] DF[3] AB[39]
!! TF[0] U3K[0] U3[0] U4[0] U4Ü[0] U5[3] U6K[0] U6[0] U7K[0] U7[0]
!! N1[17] N2K[0] N2[11] N3K[0] N3[29] N4[14] N4Ü[0] N5[17] N6K[0] N6[6]
!!!n7k: 0] N7[0] O1[3] O2K[0] O2[0] O3K[0] O3[0] HÖ[0
